usr/share/icons/Lubuntu/places/16/user-trash.svg

<?xml version="1.0" encoding="UTF-8" standalone="no"?>
<svg xmlns:dc="http://purl.org/dc/elements/1.1/" xmlns:cc="http://creativecommons.org/ns#" xmlns:rdf="http://www.w3.org/1999/02/22-rdf-syntax-ns#" xmlns:svg="http://www.w3.org/2000/svg" xmlns="http://www.w3.org/2000/svg" xmlns:xlink="http://www.w3.org/1999/xlink" xmlns:sodipodi="http://sodipodi.sourceforge.net/DTD/sodipodi-0.dtd" xmlns:inkscape="http://www.inkscape.org/namespaces/inkscape" viewBox="0 0 16 16" id="svg2" version="1.1" inkscape:version="0.48.4 r9939" width="100%" height="100%" sodipodi:docname="xfce-trash_empty.svg">
    <metadata id="metadata51">
        <rdf:RDF>
            <cc:Work rdf:about="">
                <dc:format>image/svg+xml</dc:format>
                <dc:type rdf:resource="http://purl.org/dc/dcmitype/StillImage" />
                <dc:title />
            </cc:Work>
        </rdf:RDF>
    </metadata>
    <sodipodi:namedview pagecolor="#ffffff" bordercolor="#666666" borderopacity="1" objecttolerance="10" gridtolerance="10" guidetolerance="10" inkscape:pageopacity="0" inkscape:pageshadow="2" inkscape:window-width="1280" inkscape:window-height="977" id="namedview49" showgrid="true" inkscape:zoom="29.5" inkscape:cx="9.476144" inkscape:cy="8.2450999" inkscape:window-x="0" inkscape:window-y="24" inkscape:window-maximized="1" inkscape:current-layer="svg2" inkscape:snap-bbox="true">
        <inkscape:grid type="xygrid" id="grid3028" />
    </sodipodi:namedview>
    <defs id="defs4">
        <linearGradient gradientUnits="userSpaceOnUse" id="linearGradient1022-8-8-3-0-06-59-6" x2="0" y1="3.0069399" y2="11.02436">
            <stop offset="0" id="stop3001-0-9-4-9-02-1" />
            <stop offset="1" stop-color="#363636" id="stop3003-5-6-6-5-70-43" />
        </linearGradient>
        <linearGradient inkscape:collect="always" xlink:href="#linearGradient1022-8-8-3-0-06-59-6" id="linearGradient3931" gradientUnits="userSpaceOnUse" gradientTransform="matrix(1.3439926,0,0,1.2077771,-261.98001,-827.20823)" x1="213.08154" y1="7.8809905" x2="213.08154" y2="21.128468" />
    </defs>
    <path id="path3057" style="opacity:0.7;color:black;fill:url(#linearGradient3931);fill-opacity:1;fill-rule:evenodd;stroke:none;stroke-width:1;marker:none;visibility:visible;display:inline;overflow:visible;enable-background:accumulate" d="m 12,13 1,0 0,1 -1,0 z m -3,0 1,0 0,1 -1,0 z m -3,0 1,0 0,1 -1,0 z m -3,0 1,0 0,1 -1,0 z m 9,-2 1,0 0,1 -1,0 z m -3,0 1,0 0,1 -1,0 z m -3,0 1,0 0,1 -1,0 z m -3,0 1,0 0,1 -1,0 z m 9,-2 1,0 0,1 -1,0 z m -3,0 1,0 0,1 -1,0 z M 6,9 7,9 7,10 6,10 z M 3,9 4,9 4,10 3,10 z M 2,1 1,2 l 0,4 0,9 1,1 12,0 1,-1 0,-9 0,-4 -1,-1 z M 2,2 14,2 14,7 2,7 z" />
</svg>

<?xml version="1.0" encoding="UTF-8" standalone="no"?>
<!-- Created with Inkscape (http://www.inkscape.org/) -->

<svg
   xmlns:dc="http://purl.org/dc/elements/1.1/"
   xmlns:cc="http://creativecommons.org/ns#"
   xmlns:rdf="http://www.w3.org/1999/02/22-rdf-syntax-ns#"
   xmlns:svg="http://www.w3.org/2000/svg"
   xmlns="http://www.w3.org/2000/svg"
   xmlns:sodipodi="http://sodipodi.sourceforge.net/DTD/sodipodi-0.dtd"
   xmlns:inkscape="http://www.inkscape.org/namespaces/inkscape"
   width="16"
   height="16"
   id="svg3330"
   version="1.1"
   inkscape:version="0.48.4 r9939"
   sodipodi:docname="xfce-trash_empty.svg">
  <defs
     id="defs3332" />
  <sodipodi:namedview
     id="base"
     pagecolor="#ffffff"
     bordercolor="#666666"
     borderopacity="1.0"
     inkscape:pageopacity="0.0"
     inkscape:pageshadow="2"
     inkscape:zoom="22.627417"
     inkscape:cx="16.940172"
     inkscape:cy="10.459863"
     inkscape:document-units="px"
     inkscape:current-layer="capa1"
     showgrid="true"
     inkscape:showpageshadow="false"
     inkscape:window-width="1280"
     inkscape:window-height="975"
     inkscape:window-x="0"
     inkscape:window-y="24"
     inkscape:window-maximized="1"
     inkscape:snap-page="true"
     inkscape:snap-center="true"
     inkscape:snap-object-midpoints="true">
    <inkscape:grid
       type="xygrid"
       id="grid2990" />
  </sodipodi:namedview>
  <metadata
     id="metadata3335">
    <rdf:RDF>
      <cc:Work
         rdf:about="">
        <dc:format>image/svg+xml</dc:format>
        <dc:type
           rdf:resource="http://purl.org/dc/dcmitype/StillImage" />
        <dc:title />
      </cc:Work>
    </rdf:RDF>
  </metadata>
  <g
     inkscape:label="Capa 1"
     inkscape:groupmode="layer"
     id="capa1"
     transform="translate(0,-1036.3622)">
    <path
       style="opacity:0.69999999999999996;color:#000000;fill:#363636;fill-opacity:1;fill-rule:nonzero;stroke:none;stroke-width:1;marker:none;visibility:visible;display:inline;overflow:visible;enable-background:accumulate;stroke-linecap:butt;stroke-linejoin:miter;stroke-miterlimit:4;stroke-opacity:1;stroke-dasharray:none;stroke-dashoffset:0"
       d="M 2 0 L 0 2 L 0 6 L 0 14 L 2 16 L 14 16 L 16 14 L 16 6 L 16 2 L 14 0 L 11 0 L 9 0 L 8 0 L 6 0 L 2 0 z M 2 2 L 6 2 L 8 2 L 9 2 L 11 2 L 14 2 L 14 7 L 2 7 L 2 2 z M 3 9 L 4 9 L 4 10 L 3 10 L 3 9 z M 6 9 L 7 9 L 7 10 L 6 10 L 6 9 z M 9 9 L 10 9 L 10 10 L 9 10 L 9 9 z M 12 9 L 13 9 L 13 10 L 12 10 L 12 9 z M 3 11 L 4 11 L 4 12 L 3 12 L 3 11 z M 6 11 L 7 11 L 7 12 L 6 12 L 6 11 z M 9 11 L 10 11 L 10 12 L 9 12 L 9 11 z M 12 11 L 13 11 L 13 12 L 12 12 L 12 11 z M 3 13 L 4 13 L 4 14 L 3 14 L 3 13 z M 6 13 L 7 13 L 7 14 L 6 14 L 6 13 z M 9 13 L 10 13 L 10 14 L 9 14 L 9 13 z M 12 13 L 13 13 L 13 14 L 12 14 L 12 13 z "
       transform="translate(0,1036.3622)"
       id="path3057" />
    <g
       id="g14154"
       transform="translate(-171.999,34.3618)" />
    <g
       id="g14154-0"
       transform="translate(-178.50937,43.41378)" />
  </g>
</svg>
